X: 32368
T: Pipe On The Hob, The
R: jig
M: 6/8
K: Dmixolydian
|e||d2z A2G|F2D D3|EDE c2A/G/|E2D D2A|
dcB cBA|BAG A2G|EDE c2G|E2(D D) fe||
ded A2G|F2D DED|EDE c2G|E2D D2A|
dcB cBA|BAG A2G|EDE c2A/G/|E2D D2||
A|:f2d d^cd|f2d d^cd|edB c2d|ede age|
[1 f2d d^cd|f2d d^cd|ede age|ed^c dge:|
[2 ~f3 ~g3|afa gfe|fed eag|ed^c d2A||

